Catalina-light/actions/16/office-chart-polar.svg

<svg width="16" height="16" viewBox="0 0 16 16" xmlns="http://www.w3.org/2000/svg">
<defs>
<style id="current-color-scheme" type="text/css">.ColorScheme-Text { color:#5c616c; } .ColorScheme-Highlight { color:#5294e2; }</style>
</defs>
<path class="ColorScheme-Text" d="m7.5 2c-0.277 0-0.5 0.22299-0.5 0.5s0.223 0.5 0.5 0.5 0.5-0.22299 0.5-0.5-0.223-0.5-0.5-0.5zm-5 1c-0.27701 0-0.5 0.22299-0.5 0.5s0.22299 0.5 0.5 0.5 0.5-0.22299 0.5-0.5-0.22299-0.5-0.5-0.5zm4.5 0c-1.9014 0-3.5878 0.87831-4.6855 2.25l3.1289 2.5039c0.36593-0.45681 0.92316-0.75391 1.5566-0.75391v-0.5-2-1.5zm0 1.5c0 0.27701 0.223 0.5 0.5 0.5s0.5-0.22299 0.5-0.5-0.223-0.5-0.5-0.5-0.5 0.22299-0.5 0.5zm0 2c0 0.27701 0.223 0.5 0.5 0.5s0.5-0.22299 0.5-0.5-0.223-0.5-0.5-0.5-0.5 0.22299-0.5 0.5zm3.709-3.4355-2.6504 4.2422c0.51946 0.32486 0.87029 0.88127 0.92383 1.5273l4.9883-0.41602c-0.18555-2.2658-1.4397-4.2157-3.2617-5.3535zm-7.209 4.9355c-0.27701 0-0.5 0.22299-0.5 0.5s0.22299 0.5 0.5 0.5 0.5-0.22299 0.5-0.5-0.22299-0.5-0.5-0.5zm2 0c-0.27701 0-0.5 0.22299-0.5 0.5s0.22299 0.5 0.5 0.5 0.5-0.22299 0.5-0.5-0.22299-0.5-0.5-0.5zm2 0c-0.277 0-0.5 0.22299-0.5 0.5s0.223 0.5 0.5 0.5 0.5-0.22299 0.5-0.5-0.223-0.5-0.5-0.5zm0 2c-0.277 0-0.5 0.22299-0.5 0.5s0.223 0.5 0.5 0.5 0.5-0.22299 0.5-0.5-0.223-0.5-0.5-0.5zm2 0c-0.277 0-0.5 0.22299-0.5 0.5s0.223 0.5 0.5 0.5 0.5-0.22299 0.5-0.5-0.223-0.5-0.5-0.5zm-3.916 0.41602-2.123 2.123c0.90375 0.90375 2.1541 1.4609 3.5391 1.4609v-1.5-1.5c-0.554 0-1.0545-0.22248-1.416-0.58398zm1.416 2.084c0 0.27701 0.223 0.5 0.5 0.5s0.5-0.22299 0.5-0.5-0.223-0.5-0.5-0.5-0.5 0.22299-0.5 0.5zm4.5-0.5c-0.277 0-0.5 0.22299-0.5 0.5s0.223 0.5 0.5 0.5 0.5-0.22299 0.5-0.5-0.223-0.5-0.5-0.5z" fill="currentColor"/>
</svg>

<svg xmlns="http://www.w3.org/2000/svg" width="16" height="16" viewBox="0 0 16 16">
 <defs>
  <style id="current-color-scheme" type="text/css">
   .ColorScheme-Text { color:#5c616c; } .ColorScheme-Highlight { color:#5294e2; }
  </style>
 </defs>
 <path style="fill:currentColor" class="ColorScheme-Text" d="M 7.5 2 C 7.223 2 7 2.22299 7 2.5 C 7 2.77701 7.223 3 7.5 3 C 7.777 3 8 2.77701 8 2.5 C 8 2.22299 7.777 2 7.5 2 z M 2.5 3 C 2.22299 3 2 3.22299 2 3.5 C 2 3.77701 2.22299 4 2.5 4 C 2.77701 4 3 3.77701 3 3.5 C 3 3.22299 2.77701 3 2.5 3 z M 7 3 C 5.09856 3 3.4122131 3.87831 2.3144531 5.25 L 5.4433594 7.7539062 C 5.8092894 7.2970962 6.36652 7 7 7 L 7 6.5 L 7 4.5 L 7 3 z M 7 4.5 C 7 4.77701 7.223 5 7.5 5 C 7.777 5 8 4.77701 8 4.5 C 8 4.22299 7.777 4 7.5 4 C 7.223 4 7 4.22299 7 4.5 z M 7 6.5 C 7 6.77701 7.223 7 7.5 7 C 7.777 7 8 6.77701 8 6.5 C 8 6.22299 7.777 6 7.5 6 C 7.223 6 7 6.22299 7 6.5 z M 10.708984 3.0644531 L 8.0585938 7.3066406 C 8.5780537 7.6315006 8.9288819 8.1879144 8.9824219 8.8339844 L 13.970703 8.4179688 C 13.785153 6.1521687 12.531044 4.2022431 10.708984 3.0644531 z M 3.5 8 C 3.22299 8 3 8.22299 3 8.5 C 3 8.77701 3.22299 9 3.5 9 C 3.77701 9 4 8.77701 4 8.5 C 4 8.22299 3.77701 8 3.5 8 z M 5.5 8 C 5.22299 8 5 8.22299 5 8.5 C 5 8.77701 5.22299 9 5.5 9 C 5.77701 9 6 8.77701 6 8.5 C 6 8.22299 5.77701 8 5.5 8 z M 7.5 8 C 7.223 8 7 8.22299 7 8.5 C 7 8.77701 7.223 9 7.5 9 C 7.777 9 8 8.77701 8 8.5 C 8 8.22299 7.777 8 7.5 8 z M 7.5 10 C 7.223 10 7 10.22299 7 10.5 C 7 10.77701 7.223 11 7.5 11 C 7.777 11 8 10.77701 8 10.5 C 8 10.22299 7.777 10 7.5 10 z M 9.5 10 C 9.223 10 9 10.22299 9 10.5 C 9 10.77701 9.223 11 9.5 11 C 9.777 11 10 10.77701 10 10.5 C 10 10.22299 9.777 10 9.5 10 z M 5.5839844 10.416016 L 3.4609375 12.539062 C 4.3646875 13.442812 5.615 14 7 14 L 7 12.5 L 7 11 C 6.446 11 5.9454844 10.777516 5.5839844 10.416016 z M 7 12.5 C 7 12.77701 7.223 13 7.5 13 C 7.777 13 8 12.77701 8 12.5 C 8 12.22299 7.777 12 7.5 12 C 7.223 12 7 12.22299 7 12.5 z M 11.5 12 C 11.223 12 11 12.22299 11 12.5 C 11 12.77701 11.223 13 11.5 13 C 11.777 13 12 12.77701 12 12.5 C 12 12.22299 11.777 12 11.5 12 z"/>
</svg>
